X: 24543
T: Luke Dillon
R: waltz
M: 3/4
K: Dmajor
D2 F2 A2|AB AF ED|F2 A2 Bc|d4 A2|
dc de fg|e2 A2 f3/2e/|d2 cB Bc|B4 A/B/c|
d2 cd Bc|A2 Bc d2|B2 dB AG|E4 AG|
F2 ED A2|BA Bc d2|A2 GF ED|D6||
D2 F2 A2|AB AF ED|dc de d/e/f|B4 AG|
E2 F2 AF|B2 c2 Bc|d2 D2 d/e/f|e4 fe|
dc de de|fe fa g/a/b|a2 e2 (3e(3f(3e|e4 fe|
d2 (3c(3d(3c (3B(3c(3B|A2 Bc B/c/d|B2 dB AG|E3 G FE|
D3 D AF|E4 GA|B2 B2 (3B(3c(3B|B4 A/B/c|
d2 ed cB|A2 dc DE|F2 GF ED|D6||

